X: 1
T: Pammella, Pam\`ela, Pam Ella
C: Cammy Kaynor
R: jig
Z: 2005 John Chambers <jc:trillian.mit.edu>
M: 6/8
L: 1/8
K: G
D \
| "C"E2G "D"F2A | "G"GAB d2D |  "C"E2G "D"FED | "G"G3-  G2D \
| "C"E2G "D"F2A | "G"GAB d2d | "A7"e2A   AB^c | "D"d^cd ed :|
|: B \
| "D7"cdc A2c | "G"BdB G2G | "Em"e2f gfe | "Em"B3- B2B \
| "D7"cdc A2c | "G"BdB G2G | "D7"A2G F2E |  "D"D3- D2 :|

%%sep 1 1 500

